X: 31315
T: Paddy Kelly's
R: reel
M: 4/4
K: Amixolydian
|:E|~A2eA cA eA|~E2 CE AGEF|~G2 DG dGBA|BDAD GEDE|
~A2eA cA eE|EAeA AGEF|GABd gdge|dB^GB A3:|
|:c'|~a2 ea caea|{d'}abc'a b^gef|~g2 dg Bgdg|gabg ag(3efg|
~a2 ea caea|~a2c'a baef|~g3b [1a2ge|dA^GB A3:|2 aged|cdB^G A4||
|:"*1"~e3 c ~d3 B|cAce aecA|~G3B dGBA|BDAD GEDE|
~A3 e dB^GB|"*2"AE ~E2 ABcd|e^def ^gedB|cA^GB A4:|
|:e ~a3 c'~a3|eaab aged|e~g3 b~g3|~e2de gede|
e ~a3 c'~a3|eaab aged|efgb ~a2ge|dB^GB A4:|
"*1"ceae ^de=dB||"*2"cEBE ABcd||

